build/images/common/home.svg

<svg width="27" height="27" viewBox="0 0 27 27" fill="none" xmlns="http://www.w3.org/2000/svg">
<g clip-path="url(#clip0_13_4065)">
<path d="M26.1928 11.94L14.5167 1.20922L14.4051 1.10669C14.3284 1.03626 14.2442 0.979027 14.1553 0.935C14.1513 0.93307 14.1472 0.931648 14.1432 0.929719C13.8533 0.79068 13.5152 0.79068 13.2252 0.929719C13.2212 0.931598 13.2171 0.93302 13.2131 0.935C13.1242 0.979027 13.04 1.03626 12.9633 1.10669L12.8534 1.20775L1.17567 11.94C0.737753 12.3424 0.705454 13.0276 1.10359 13.4704C1.50168 13.9131 2.17946 13.9457 2.61738 13.5432L2.96815 13.2209V25.7416C2.96815 26.3399 3.44791 26.825 4.03974 26.825H9.39782H17.9707H23.3288C23.9206 26.825 24.4004 26.3399 24.4004 25.7416V13.2209L24.7511 13.5432C25.1891 13.9457 25.8668 13.9131 26.2649 13.4704C26.6631 13.0276 26.6308 12.3425 26.1928 11.94ZM11.541 24.6583V18.1583C11.541 16.9616 12.5004 15.9916 13.6843 15.9916C14.8681 15.9916 15.8275 16.9615 15.8275 18.1583V24.6583H11.541ZM22.2572 24.6583H17.9707V18.1583C17.9707 15.7649 16.0518 13.825 13.6843 13.825C11.3167 13.825 9.39782 15.7649 9.39782 18.1583V24.6583H5.11134V11.2514L13.6843 3.3724L22.2572 11.2514V24.6583Z" fill="white"/>
</g>
<defs>
<clipPath id="clip0_13_4065">
<rect width="25.7187" height="26" fill="white" transform="translate(0.825195 0.824219)"/>
</clipPath>
</defs>
</svg>

<svg width="27" height="27" fill="none" xmlns="http://www.w3.org/2000/svg"><g clip-path="url(#clip0_13_4065)"><path d="M26.193 11.94L14.517 1.21l-.112-.103a1.073 1.073 0 00-.25-.172L14.143.93a1.062 1.062 0 00-.918 0l-.012.005a1.073 1.073 0 00-.25.172l-.11.1L1.176 11.94a1.092 1.092 0 00-.072 1.53 1.063 1.063 0 001.513.073l.351-.322v12.52c0 .599.48 1.084 1.072 1.084h19.289c.592 0 1.071-.485 1.071-1.083V13.22l.351.322c.438.403 1.116.37 1.514-.073a1.092 1.092 0 00-.072-1.53zM11.54 24.658v-6.5c0-1.196.96-2.166 2.143-2.166 1.184 0 2.144.97 2.144 2.166v6.5H11.54zm10.716 0H17.97v-6.5c0-2.393-1.92-4.333-4.287-4.333s-4.286 1.94-4.286 4.333v6.5H5.11V11.251l8.573-7.879 8.573 7.88v13.406z" fill="#fff"/></g><defs><clipPath id="clip0_13_4065"><path fill="#fff" transform="translate(.825 .824)" d="M0 0h25.719v26H0z"/></clipPath></defs></svg>
